dist/images/icons/product-arrow.svg

<svg width="19" height="32" viewBox="0 0 19 32" fill="none" xmlns="http://www.w3.org/2000/svg">
<path d="M18.3105 14.7728L2.29726 0.38655C1.77178 -0.12885 0.919578 -0.12885 0.394105 0.38655C-0.131368 0.90191 -0.131369 1.73814 0.394104 2.25354L15.4418 15.7734L0.395433 29.2931C-0.130041 29.8085 -0.130041 30.6447 0.395432 31.1601C0.920905 31.6755 1.77311 31.6755 2.29854 31.1601L18.3119 16.7739C18.5919 16.4991 18.712 16.1349 18.6933 15.7747C18.7107 15.4131 18.5907 15.0489 18.3105 14.7728Z" fill="#363853"/>
</svg>

<svg width="19" height="32" fill="none" xmlns="http://www.w3.org/2000/svg"><path d="M18.31 14.773L2.297.387a1.365 1.365 0 00-1.903 0 1.303 1.303 0 000 1.867l15.048 13.52L.395 29.293a1.303 1.303 0 000 1.866 1.364 1.364 0 001.904 0l16.013-14.386c.28-.275.4-.64.381-1a1.3 1.3 0 00-.383-1.001z" fill="#363853"/></svg>
